X: 13138
T: First House In Connaught, The
R: reel
M: 4/4
K: Gmajor
|:DG G2 AG G2|(3BAG dB BGAF|DF F2 AF F2|AB (3cBA BGAF|
DG G2 AG G2|(3BAG AF GABc|defg agfd|1 cAFA G3E:|2 cAFA G2 Bd||
|:g3a gfdf|gabg afde|f2 dg f2 dg|fgaf bgaf|
g3a gfdf|gabg agfe|defg agfd|1 cAFA G2 Bd:|2 cAFA G3E||

